X:942
T:Give me your hand
R:Air
C:Rory Dall Ó Catháin
S:Appears in O'Neill's Music of Ireland as #406
D:The Chieftains 5- apparently slightly different...
B:O'Neill's 406
S:O'Neill's 406
Z:Transcription, chords:Mike Long
M:6/8
L:1/8
K:G
D|\
"C"(EG).G "G"G2D|"C"(EG).G "G"G2D|"C"(EG).G "G"(GA).B|"Bm"Bed "Em"B2 (A/G/)|\
"Am".A(Ae) "Em".B(B.d)|"Am".A(A/B/A/G/) "C"E2D|
"C"(EG).G "G"g2G|"C"(EG).G "G"g2D|"C"(EG).G "G"(ga).b|\
"D".d(d/b/a/b/) "G"g2G|"C"(EG).G "G"(GA).B|"Bm"Bed "Em"B2 (A/G/)|
"Am".A(Ae) "Em".B(Bd)|"Am".A(AB/d/) "C"e2 (d/B/)|"G"d(de) g2 (e/d/)|\
"C".e(eg) "D"a2(g/e/)|"G".g.gd/e/ .g.gd/e/|.g.g.a b3|.b.b.b b2 (a/g/)|
"D"(a/g/a/b/)(a/b/) a2 (g/f/)|"C".e.e(g/e/) "G".d.d(e/d/)|\
"Bm".B.B(d/B/) "Am/D"A2G|"G"GG(B/d/) "F"=f2 (d/B/)|"C"eeg e2 (d/B/)|\
"G".ddg "(Bm)".BBd|"D".A(c/B/A/G/) "G"HG2|]
